X:1
T:Make Thee Ready, as Best Thou Art Able
T:Make Thee Ready, as Best Thou Art Able
T:Arranged by Charles Wood
T:Sophronius, 629, trans. by George R. Woodward
T:Public Domain Courtesy of the Cyber Hymnal™
T:Public Domain Courtesy of the Cyber Hymnal™
C:Arranged by Charles Wood
Z:Public Domain
Z:Courtesy of the Cyber Hymnal™
%%score ( 1 2 ) ( 3 4 )
L:1/8
Q:1/4=115
M:3/4
K:F
V:1 treble 
V:2 treble 
V:3 bass 
V:4 bass 
V:1
 z2 [FA]2 [FB]2 | [Fc]3 [CA] [DA]2 | [DB]3 [DA] [EG]2 | [FA]4 [EG]2 | z2 [FB]2 x2 | %5
w: 1.~Make thee|rea- dy, as|best thou art|a- ble,|~|
w: 2.~Type and|sha- dow of|yore are now|end- ed;|~|
w: 3.~He is|past through the|vir- gin- al|por- tal;|~|
w: 4.~Where- fore|Ad- am and|Ev- a, for-|giv- en|~|
 [FA]3 [EG] [FA]2 | [FA]3 [DG] [EA]2 | F6 | z2 [CE]2 [CF]2 | [DG]3 [DF] [CE]2 | %10
w: Lit- tle Beth-|le- hem, gar-|nish|the bed,|Tho’ it be|
w: Lo, the sub-|stance is come,|as|I ken;|Truth In- car-|
w: The In- vi-|si- ble doth|not|de- cline|To be found|
w: Their in- i-|qui- ty cry,|“By|the grace|And good- will|
 [CD]3 [CE] [=B,F]2 | [CE]4 [=B,D]2 | z2 [CF]2 x2 | [CE]3 [=B,D] [CE]2 | [CE]3 [A,D] [=B,D]2 | %15
w: but a crib|in a|sta-|ble, ~ Where|the In- fant|
w: nate to earth|is de-|scend-|ed, ~ God|hath pitch- èd|
w: in the fa-|shion of|mor-|tal, ~ For|to make hu-|
w: of our Lord|are we|shriv-|en; ~ Seen|of men, He|
 z4 D2 | E3 D C2- | G4 E2 x3 | z2 [FB]2 x2 | [FA]3 [EG] [FA]2 | [DA]3 [DG] [EG]2 | !fermata!F6 |] %22
w: ||may pil-|low|His head, ~|Where the In-|fant|
w: ||His tent|a-|mong men. ~|God hath pitch-|èd|
w: ||man na-|ture|di- vine, ~|For to make|hu-|
w: ||doth ran-|som|our race; ~|Seen of men,|He|
V:2
 x6 | x6 | x6 | x6 | (A4 F2) | x6 | x6 | F6 | x6 | x6 | x6 | x6 | E4 C2 | x6 | x6 | C6- | C4- x2 | %17
 C3 D x5 | (A4 F2) | x6 | x6 | F6 |] %22
V:3
 z2 [F,C]2 [D,B,]2 | [A,,F,]3 [A,,F,] [D,F,]2 | [B,,F,]3 [B,,F,] [C,C]2 | [F,C]4 [C,C]2 | %4
 z2 [F,C]2 [B,,D]2 | [C,C]3 [C,C] [F,C]2 | [B,,D]3 [B,,D] [C,C]2 | [F,A,]6 | z2 [C,G,]2 [A,,A,]2 | %9
 [=B,,G,]3 [B,,G,] [C,G,]2 | [F,A,]3 [F,A,] G,2 | [C,G,]4 [G,,G,]2 | z2 [C,G,]2 [F,A,]2 | %13
 G,3 G, [C,G,]2 | [F,A,]3 [F,A,] G,2 | [C,G,]6- | G,2 E,2 [D,F,]2 | [E,G,]2 z x6 | [F,C]4 [B,,D]2 | %19
 [C,C]3 [C,C] [F,C]2 | [B,,B,]3 [B,,B,] [C,B,]2 | !fermata![F,A,]6 |] %22
V:4
 x6 | x6 | x6 | x6 | x6 | x6 | x6 | x6 | x6 | x6 | x4 G,2 | x6 | x6 | G,3 G, x2 | x4 G,2 | x6 | %16
 C,4 x2 | x2 C4 (D, C,2) | x6 | x6 | x6 | x6 |] %22

